!!!COM: Anonymous
!!!CDT: [?]
!!!OTL@@LAT: Ave magne REx caelorum
!!!TXO: Latin
!!!ODT: 
!!!GTL: Hymnbook E
!!!ARL: Opactwo św. Wojciecha, Staniątki 
!!!voices:	3
**kern	**kern	**text	**kern	**text
*staff3	*staff2	*staff2	*staff1	*staff1
*I"Basso	*I"Tenore	*	*I"Canto	*
=1-	=1-	=1-	=1-	=1-
*clefF4	*clefGv2	*	*clefG2	*
*k[b-]	*k[b-]	*	*k[b-]	*
*met(c|)	*met(c|)	*	*met(c|)	*
*M2/2	*M2/2	*	*M2/2	*
2F\	2F/	A-	2f/	A-
2F\	2c\	-ve	2a/	-ve
=2	=2	=2	=2	=2
2BB-/	2d\	mag-	2b-\	mag-
4.F\	2c\	-ne	2a/	-ne
8E\	.	.	.	.
=3	=3	=3	=3	=3
4D\	4A/	Rex	4f/	Rex
4BB-/	4B-\	cae-	4g/	cae-
2C/	2G/	-lo-	2e/	-lo-
=4	=4	=4	=4	=4
1FF	1F	-rum	1f	-rum
=5	=5	=5	=5	=5
1F	2r	.	2r	.
.	2c\	A-	2a/	A-
=6	=6	=6	=6	=6
2G\	2d\	-ve	2b-\	-ve
2E\	2e\	rec-	2cc\	rec-
=7	=7	=7	=7	=7
1D	1f	-tor	1dd	-tor
=8	=8	=8	=8	=8
4C/	4e\	an-	4cc\	an-
4F\	4f\	-ge-	2cc\	-ge-
2G\	2d\	-lo-	.	.
.	.	.	4bni\	-lo-
=9	=9	=9	=9	=9
2C/	2c\	-rum	2cc\	-rum
2F\	2c\	o	2a/	o
=10	=10	=10	=10	=10
2F\	1B-	Ie-	1g	Ie-
2E\	.	.	.	.
=11	=11	=11	=11	=11
2F\	1A	-su	2f/	-su
2F\	.	.	2cc\	o
=12	=12	=12	=12	=12
2BB-/	1r	.	2dd\	Ie-
2GG/	.	.	2ee\	.
=13	=13	=13	=13	=13
2FF/	2r	.	2ff\	-su
2F\	2c\	mi-	2a/	mi-
=14	=14	=14	=14	=14
2.BB-/	2.d\	-se-	2.b-\	-se-
4F\	4c\	.	4a/	.
=15	=15	=15	=15	=15
2G\	2B-\	-re-	2g/	-re-
2F\	2A/	-re	[2f/	-re
=16	=16	=16	=16	=16
1C	1G	no-	2f/]	.
.	.	.	2e/	no-
=17	=17	=17	=17	=17
[1FF	[1F	-bis.	[1f	-bis.
=18	=18	=18	=18	=18
1FF]	1F]	.	1f]	.
==	==	==	==	==
*-	*-	*-	*-	*-
!!!GTL: Hymnbook E
!!!EFL: 67/117
!!!YEM: Creative Commons CC/BY/NC/SA 4.0
!!!ENC: Marcin Konik
!!!END: 
!!!EED: Marcin Konik
!!!EEV: 
!!!ONB: Translated from MusicXML and edited by Marcin Konik
!!!CharacterEncoding: utf-8
!!!RDF**kern: l=long note in original notation
!!!RDF**kern: i=editorial accidental
!!muse2ps: z14jc180F
